static/img/clover.svg

<svg id="Capa_1" fill="#92e3a9" enable-background="new 0 0 512 512" height="512" viewBox="0 0 512 512" width="512" xmlns="http://www.w3.org/2000/svg"><g><path d="m439.385 124.4c-21.855 0-48.387 9.211-79.217 27.432 18.221-30.83 27.432-57.361 27.432-79.217 0-38.658-26.051-72.615-71.6-72.615-19.719 0-41.969 10.958-60 28.87-18.031-17.912-40.281-28.87-60-28.87-45.007 0-71.6 33.492-71.6 72.615 0 21.856 9.211 48.387 27.432 79.217-30.83-18.221-57.362-27.432-79.217-27.432-38.657 0-72.615 26.051-72.615 71.6 0 19.718 10.958 41.969 28.87 60-17.912 18.031-28.87 40.282-28.87 60 0 45.007 33.492 71.6 72.615 71.6 21.855 0 48.387-9.211 79.217-27.432-18.221 30.83-27.432 57.361-27.432 79.217 0 38.658 26.051 72.615 71.6 72.615 19.718 0 41.969-10.958 60-28.87 18.031 17.912 40.282 28.87 60 28.87 45.007 0 71.6-33.492 71.6-72.615 0-21.856-9.211-48.387-27.432-79.217 30.83 18.221 57.362 27.432 79.217 27.432 38.657 0 72.615-26.051 72.615-71.6 0-19.718-10.958-41.969-28.87-60 17.912-18.031 28.87-40.282 28.87-60 0-45.007-33.492-71.6-72.615-71.6zm-243.385-94.4c14.547 0 34.724 12.897 47.976 30.666 5.991 8.033 18.052 8.041 24.049 0 13.251-17.769 33.428-30.666 47.975-30.666 40.433 0 41.6 38.253 41.6 42.615 0 47.172-60.048 119.843-101.6 160.981-38.215-37.836-101.6-112.739-101.6-160.981 0-4.362 1.167-42.615 41.6-42.615zm-166 286c0-14.547 12.896-34.724 30.666-47.976 8.032-5.991 8.041-18.051 0-24.048-17.77-13.252-30.666-33.429-30.666-47.976 0-40.433 38.253-41.6 42.615-41.6 48.773 0 123.237 63.485 160.981 101.6-42.052 42.467-114.854 101.6-160.981 101.6-4.362 0-42.615-1.167-42.615-41.6zm286 166c-14.547 0-34.724-12.897-47.976-30.666-5.993-8.033-18.05-8.041-24.049 0-13.251 17.769-33.428 30.666-47.975 30.666-40.433 0-41.6-38.253-41.6-42.615 0-48.87 63.709-123.467 101.6-160.981 46.073 45.615 101.6 116.477 101.6 160.981 0 4.362-1.167 42.615-41.6 42.615zm135.334-213.976c17.77 13.252 30.666 33.429 30.666 47.976 0 40.433-38.253 41.6-42.615 41.6-47.171 0-119.839-60.053-160.981-101.6 37.839-38.212 112.422-101.6 160.981-101.6 4.362 0 42.615 1.167 42.615 41.6 0 14.547-12.896 34.724-30.666 47.976-8.032 5.991-8.041 18.051 0 24.048z"/></g>
</svg>

<svg fill="#92e3a9" height="512" width="512" xmlns="http://www.w3.org/2000/svg"><path d="M439.385 124.4c-21.855 0-48.387 9.211-79.217 27.432 18.221-30.83 27.432-57.361 27.432-79.217C387.6 33.957 361.549 0 316 0c-19.719 0-41.969 10.958-60 28.87C237.969 10.958 215.719 0 196 0c-45.007 0-71.6 33.492-71.6 72.615 0 21.856 9.211 48.387 27.432 79.217-30.83-18.221-57.362-27.432-79.217-27.432C33.958 124.4 0 150.451 0 196c0 19.718 10.958 41.969 28.87 60C10.958 274.031 0 296.282 0 316c0 45.007 33.492 71.6 72.615 71.6 21.855 0 48.387-9.211 79.217-27.432-18.221 30.83-27.432 57.361-27.432 79.217C124.4 478.043 150.451 512 196 512c19.718 0 41.969-10.958 60-28.87 18.031 17.912 40.282 28.87 60 28.87 45.007 0 71.6-33.492 71.6-72.615 0-21.856-9.211-48.387-27.432-79.217 30.83 18.221 57.362 27.432 79.217 27.432C478.042 387.6 512 361.549 512 316c0-19.718-10.958-41.969-28.87-60 17.912-18.031 28.87-40.282 28.87-60 0-45.007-33.492-71.6-72.615-71.6zM196 30c14.547 0 34.724 12.897 47.976 30.666 5.991 8.033 18.052 8.041 24.049 0C281.276 42.897 301.453 30 316 30c40.433 0 41.6 38.253 41.6 42.615 0 47.172-60.048 119.843-101.6 160.981-38.215-37.836-101.6-112.739-101.6-160.981C154.4 68.253 155.567 30 196 30zM30 316c0-14.547 12.896-34.724 30.666-47.976 8.032-5.991 8.041-18.051 0-24.048C42.896 230.724 30 210.547 30 196c0-40.433 38.253-41.6 42.615-41.6 48.773 0 123.237 63.485 160.981 101.6-42.052 42.467-114.854 101.6-160.981 101.6C68.253 357.6 30 356.433 30 316zm286 166c-14.547 0-34.724-12.897-47.976-30.666-5.993-8.033-18.05-8.041-24.049 0C230.724 469.103 210.547 482 196 482c-40.433 0-41.6-38.253-41.6-42.615 0-48.87 63.709-123.467 101.6-160.981 46.073 45.615 101.6 116.477 101.6 160.981 0 4.362-1.167 42.615-41.6 42.615zm135.334-213.976C469.104 281.276 482 301.453 482 316c0 40.433-38.253 41.6-42.615 41.6-47.171 0-119.839-60.053-160.981-101.6 37.839-38.212 112.422-101.6 160.981-101.6 4.362 0 42.615 1.167 42.615 41.6 0 14.547-12.896 34.724-30.666 47.976-8.032 5.991-8.041 18.051 0 24.048z"/></svg>
